X: 1560
T: Dunphy's Hornpipe
R:hornpipe
N:"Collected by Fielding"
B:O'Neill's 1560
Z:Transcribed by Michael Hogan
Z:Proofread by Frank Nordberg
M:2/4
L:1/16
K:G
(3DEF | G>DB>D G2 (3gag | f>ee>d e>cA>G | (3FAF D>G F>GA>c | (3BAG (3AGF G>FE>D |
G>DB>D G2 (3gag | f2e>d e>cA>G | F>Ad>B c>AD>F | A>G({A}G>)F G2 :|
|: B>c | d>cB>d g>dB>d | (3gag b>f g>dB>d | (3gag f>g e>dc>d | (3efe d>c d2(3def |
(3gag d>c (3BdB G>c | e>cA>G (3FAF D>D | G>Bd>B c>AD>F| A>G({A}G>)F G2 :|


